X:1
T: Stairway To Heaven Solo
Z: Devire
M: 3/4
L: 1/8
Q:1/4=84
K: G
E-|E3A/2G/2 E/2D/2C/2A,/2 D/2C/2A,/2G,/2|=F,3z G/2A/2c cd-|dc AA/2G/2 Ac3/2d/2c/2A/2|
G/2=F/2G/2A2-A/2 D/2E/2A/2G/2 E/2D/2c/2A/2|d/2c/2A/2G/2 E/2G/2A c/2A/2c cG|a/2g/2e/2d/2 c/2A/2d/2c/2 A/2G/2A/2G/2 =FA|c/2=f/2d/2c/2 A/2c/2d/2e/2 g/2e/2g/2a/2 c'e|
d/2c/2d/2c/2 c/2g/2a g/2e/2e/2d/2 c/2A/2c/2d/2|d/2A/2c/2d/2 d/2A/2c/2d/2 d/2A/2c/2d/2 d/2A/2c/2d/2|d/2A/2c/2d/2 d/2A/2c/2d/2 d/2A/2c/2d/2 d/2A/2c/2d/2|d/2A/2c/2d/2 d/2A/2c/2g/2 a3-a/2g/2|
e/2d/2e/2d/2 c/2A/2c/2d/2 c/2A/2c/2d/2 e/2g/2e/2c/2|A6 z2|d/2e/2g/2age/2 d/2A/2d/2c/2 A/2d/2d|e6- ez|
a/2c'2-c'/2c' ag/2a/2 g/2g3/2-|g6- gz|=f3a g/2e/2d/2c/2 d/2c/2d/2e/2|d/2c/2A4z2z/2e/2|
c'/2e/2c'/2e/2 c'/2e/2c'/2e/2 c'/2e/2c'/2b3/2
z3c2d2e-|ed2c2B2c|
BA/2G3/2z2G2c|GA6-A-|A3
-----------------------------------------------------------------------------
Alubob16-06-2007, 01:18 AMYesterday - Beatles - not bad 7/10 :D
